X:38
T: AN DEN RHEIN AN DEN RHEIN
N: B0525
O: Europa, Mitteleuropa, Deutschland
R: Wander - Lied
M: 6/8
L: 1/16
K: D
DE | F4FGA4D2 | B2A2^G2A4
A2 | d4D2F3ED2 | A8z2
A2 | B2A2c2e3dA2 | B4AGF4
d2 | c2B2G2F3GE2 | D8z2

@@@ Tune index: 2256
